assets/svg/icon_login_icelogo.svg

<svg width="44" height="45" viewBox="0 0 44 45" fill="none" xmlns="http://www.w3.org/2000/svg">
<g id="icon/login/icelogo">
<g id="Vector">
<path d="M22.0674 1.7425L22.0627 1.72266V1.76234L18.9379 14.958L22.0627 21.4882V21.5076L22.0674 21.4979L22.072 21.5076V21.4882L25.1968 14.958L22.072 1.76234V1.72266L22.0674 1.7425Z" fill="white"/>
<path d="M21.9381 44.4806L21.9428 44.5004V44.4608L25.0675 31.2651L21.9427 24.7349V24.7155L21.9381 24.7252L21.9334 24.7155V24.7349L18.8086 31.2651L21.9334 44.4608V44.5004L21.9381 44.4806Z" fill="white"/>
<path d="M40.9199 11.9824L40.9386 11.9646L40.8951 11.9906L27.6582 16.3626L23.5645 22.3652L23.5445 22.3772L23.5574 22.3756L23.5495 22.3872L23.5715 22.374L30.9521 21.5078L40.9022 11.9994L40.9436 11.9746L40.9199 11.9824Z" fill="white"/>
<path d="M3.07724 34.2415L3.05967 34.2583L3.10061 34.2338L16.3401 29.861L20.4346 23.8572L20.4537 23.8457L20.4414 23.8472L20.4488 23.8364L20.4281 23.8487L13.0461 24.7151L3.09419 34.2253L3.05469 34.2489L3.07724 34.2415Z" fill="white"/>
<path d="M3.12051 11.9115L3.10143 11.9051L3.13482 11.9252L13.0542 21.4788L20.4371 22.3736L20.4532 22.3834L20.4475 22.3749L20.4582 22.3762L20.4416 22.3661L16.369 16.3433L3.13929 11.9177L3.10643 11.8979L3.12051 11.9115Z" fill="white"/>
<path d="M40.8791 34.3139L40.8988 34.3205L40.8644 34.2998L30.9456 24.7468L23.5632 23.852L23.547 23.8422L23.5527 23.8507L23.5416 23.8494L23.5588 23.8598L27.6312 29.8823L40.8601 34.3076L40.8934 34.3277L40.8791 34.3139Z" fill="white"/>
</g>
</g>
</svg>

<svg xmlns="http://www.w3.org/2000/svg" width="44" height="45" fill="none"><g fill="#fff"><path d="m22.067 1.743-.004-.02v.04l-3.125 13.195 3.125 6.53v.02l.004-.01.005.01v-.02l3.125-6.53-3.125-13.196v-.04zM21.938 44.48l.005.02v-.04l3.124-13.195-3.124-6.53v-.02l-.005.01-.005-.01v.02l-3.124 6.53 3.124 13.196v.04zM40.92 11.982l.019-.017-.044.026-13.237 4.372-4.094 6.002-.02.012.013-.001-.008.011.023-.013 7.38-.866 9.95-9.509.042-.024zM3.077 34.242l-.017.016.04-.024 13.24-4.373 4.095-6.004.019-.011-.013.001.008-.01-.02.012-7.383.866-9.952 9.51-.04.024zM3.12 11.912l-.019-.007.034.02 9.92 9.554 7.382.895.016.01-.005-.01.01.002-.016-.01-4.073-6.023-13.23-4.425-.033-.02zM40.88 34.314l.019.007-.035-.021-9.918-9.553-7.383-.895-.016-.01.006.009-.011-.002.017.01 4.072 6.023 13.23 4.426.032.02z"/></g></svg>
